;FLAVOR:Marlin
;TIME:7343
;Filament used: 4.67131m
;Layer height: 0.2
;MINX:87.757
;MINY:99.045
;MINZ:0.3
;MAXX:132.243
;MAXY:121.82
;MAXZ:50.5
;Generated with Cura_SteamEngine main
M82 ;absolute extrusion mode
; Ender 3 Custom Start G-code
G92 E0 ; Reset Extruder
G28 ; Home all axes
M104 S205.0 ; Start heating up the nozzle most of the way
M190 S60.0 ; Start heating the bed, wait until target temperature reached
M109 S205.0 ; Finish heating the nozzle
G1 Z2.0 F3000 ; Move Z Axis up little to prevent scratching of Heat Bed
G1 X0.1 Y20 Z0.3 F5000.0 ; Move to start position
G1 X0.1 Y200.0 Z0.3 F1500.0 E15 ; Draw the first line
G1 X0.4 Y200.0 Z0.3 F5000.0 ; Move to side a little
G1 X0.4 Y20 Z0.3 F1500.0 E30 ; Draw the second line
G92 E0 ; Reset Extruder
G1 Z2.0 F3000 ; Move Z Axis up little to prevent scratching of Heat Bed
G1 X5 Y20 Z0.3 F5000.0 ; Move over to prevent blob squish
G92 E0
G92 E0
G1 F1500 E-3
;LAYER_COUNT:252
;LAYER:0
M107
;MESH:kesici_??l????_9.stl
G0 F6000 X88.457 Y120.255 Z0.3
;TYPE:WALL-INNER
G1 F1500 E0
G1 F1200 X131.543 Y120.255 E3.22435
G1 X131.543 Y104.616 E4.3947
G1 X131.287 Y104.577 E4.41408
G1 X130.749 Y104.467 E4.45518
G1 X130.157 Y104.312 E4.50097
G1 X129.632 Y104.146 E4.54218
G1 X129.15 Y103.967 E4.58066
G1 X128.593 Y103.73 E4.62596
G1 X128.095 Y103.483 E4.66756
G1 X127.606 Y103.21 E4.70947
G1 X127.134 Y102.915 E4.75112
G1 X126.692 Y102.608 E4.79139
G1 X126.236 Y102.251 E4.83473
G1 X125.801 Y101.878 E4.87761
G1 X125.437 Y101.532 E4.9152
G1 X125.026 Y101.096 E4.96004
G1 X124.655 Y100.666 E5.00254
G1 X124.338 Y100.253 E5.0415
G1 X123.989 Y99.746 E5.08756
G1 X121.547 Y99.745 E5.27031
G1 X121.404 Y100.958 E5.36171
G1 X121.257 Y102.044 E5.44373
G1 X121.087 Y102.397 E5.47305
G1 X120.819 Y102.629 E5.49957
G1 X120.433 Y102.744 E5.52971
G1 X118.765 Y102.745 E5.65454
G1 X118.301 Y103.517 E5.72194
G1 X117.876 Y104.163 E5.77981
G1 X117.444 Y104.764 E5.8352
G1 X117.01 Y105.32 E5.88799
G1 X116.513 Y105.908 E5.9456
G1 X116.014 Y106.449 E6.00068
G1 X115.472 Y106.992 E6.05809
G1 X114.953 Y107.473 E6.11105
G1 X114.391 Y107.953 E6.16636
G1 X113.839 Y108.389 E6.219
G1 X113.217 Y108.839 E6.27645
G1 X112.634 Y109.23 E6.32898
G1 X112.001 Y109.617 E6.38451
G1 X111.326 Y109.992 E6.44229
G1 X110.666 Y110.323 E6.49755
G1 X109.997 Y110.628 E6.55257
G1 X109.315 Y110.904 E6.60763
G1 X108.62 Y111.157 E6.66298
G1 X107.914 Y111.38 E6.71838
G1 X107.204 Y111.573 E6.77344
G1 X106.488 Y111.737 E6.82841
G1 X105.798 Y111.869 E6.88099
G1 X105.03 Y111.982 E6.93908
G1 X104.293 Y112.059 E6.99453
G1 X103.56 Y112.108 E7.04951
G1 X102.823 Y112.126 E7.10468
G1 X102.085 Y112.115 E7.15991
G1 X101.352 Y112.075 E7.21485
G1 X100.615 Y112.007 E7.27024
G1 X99.921 Y111.913 E7.32265
G1 X99.193 Y111.785 E7.37796
G1 X98.45 Y111.625 E7.43484
G1 X97.758 Y111.444 E7.48837
G1 X97.052 Y111.232 E7.54353
G1 F1192.1 X96.812 Y111.154 E7.56254
G1 F1172.6 X96.572 Y111.076 E7.58187
G1 F1090.9 X96.255 Y111.007 E7.60858
G1 F1106 X96.616 Y111.332 E7.64802
G1 F1200 X97.073 Y111.775 E7.69565
G1 X97.457 Y112.367 E7.74845
G1 X97.628 Y112.769 E7.78115
G1 X97.821 Y113.581 E7.84361
G1 X97.788 Y114.245 E7.89336
G1 X97.62 Y114.951 E7.94767
G1 X97.312 Y115.573 E7.99961
G1 X97.058 Y115.925 E8.03209
G1 X96.58 Y116.396 E8.08231
G1 X96.15 Y116.691 E8.12134
G1 X95.92 Y116.804 E8.14051
G1 X95.231 Y117.03 E8.19478
G1 X94.508 Y117.099 E8.24913
G1 X93.98 Y117.056 E8.28877
G1 X93.726 Y116.997 E8.30829
G1 X93.059 Y116.734 E8.36194
G1 X92.692 Y116.51 E8.39412
G1 X92.19 Y116.078 E8.44368
G1 X91.913 Y115.741 E8.47633
G1 X91.574 Y115.147 E8.52751
G1 X91.424 Y114.713 E8.56187
G1 X91.311 Y114.225 E8.59936
G1 X91.31 Y113.627 E8.64411
G1 X91.428 Y112.933 E8.69679
G1 X91.507 Y112.689 E8.71598
G1 X91.7 Y112.294 E8.74888
G1 X92.017 Y111.786 E8.79369
G1 X92.464 Y111.356 E8.84011
G1 X93.048 Y110.958 E8.893
G1 X93.711 Y110.697 E8.94632
G1 X94.419 Y110.593 E8.99987
G1 X94.788 Y110.603 E9.0275
G1 F1159.4 X95.13 Y110.643 E9.05417
G1 F1086 X95.472 Y110.684 E9.08265
G1 X95.232 Y110.555 E9.10518
G1 F1159.4 X94.991 Y110.425 E9.12639
G1 F1200 X94.299 Y110.086 E9.18406
G1 X93.648 Y109.735 E9.23941
G1 X93.045 Y109.377 E9.29189
G1 X92.399 Y108.958 E9.34951
G1 X91.633 Y108.426 E9.4193
G1 X91.172 Y108.207 E9.45749
G1 X90.687 Y108.134 E9.4942
G1 X90.284 Y108.148 E9.52437
G1 X89.793 Y108.259 E9.56205
G1 X89.358 Y108.506 E9.59948
G1 X88.968 Y108.838 E9.63781
G1 X88.696 Y109.257 E9.67519
G1 X88.541 Y109.639 E9.70604
G1 X88.458 Y110.077 E9.73941
G1 X88.457 Y120.255 E10.50108
G0 F6000 X87.857 Y120.855
;TYPE:WALL-OUTER
G1 F1200 X132.143 Y120.855 E13.81524
G1 X132.143 Y104.332 E15.05174
G1 X132.143 Y104.089 E15.06992
G1 X131.886 Y104.062 E15.08926
G1 X131.364 Y103.981 E15.12879
G1 X130.855 Y103.876 E15.16769
G1 X130.337 Y103.74 E15.20777
G1 X129.841 Y103.584 E15.24668
G1 X129.359 Y103.405 E15.28515
G1 X128.859 Y103.192 E15.32583
G1 X128.386 Y102.958 E15.36532
G1 X127.924 Y102.701 E15.40488
G1 X127.476 Y102.421 E15.44442
G1 X127.04 Y102.119 E15.48411
G1 X126.626 Y101.795 E15.52345
G1 X126.215 Y101.443 E15.56395
G1 X125.839 Y101.085 E15.6028
G1 X125.48 Y100.703 E15.64203
G1 X125.131 Y100.3 E15.68192
G1 X124.806 Y99.875 E15.72196
G1 X124.51 Y99.448 E15.76084
G1 X124.321 Y99.146 E15.78751
G1 X121.006 Y99.145 E16.03558
G1 X120.93 Y99.871 E16.09021
G1 X120.81 Y100.877 E16.16603
G1 X120.673 Y101.886 E16.24223
G1 X120.613 Y102.029 E16.25384
G1 X120.523 Y102.107 E16.26275
G1 X120.395 Y102.145 E16.27274
G1 X118.403 Y102.145 E16.42181
G1 X118.152 Y102.601 E16.46077
G1 X117.78 Y103.218 E16.51468
G1 X117.388 Y103.813 E16.568
G1 X116.972 Y104.394 E16.62148
G1 X116.533 Y104.955 E16.67479
G1 X116.071 Y105.502 E16.72837
G1 X115.588 Y106.026 E16.7817
G1 X115.064 Y106.552 E16.83726
G1 X114.563 Y107.017 E16.88842
G1 X114.019 Y107.482 E16.94197
G1 X113.457 Y107.925 E16.99553
G1 X112.883 Y108.341 E17.04858
G1 X112.288 Y108.739 E17.10215
G1 X111.678 Y109.11 E17.15558
G1 X111.056 Y109.456 E17.20884
G1 X110.418 Y109.777 E17.26229
G1 X109.77 Y110.072 E17.31557
G1 X109.11 Y110.34 E17.36888
G1 X108.438 Y110.585 E17.42241
G1 X107.756 Y110.801 E17.47594
G1 X107.07 Y110.988 E17.52915
G1 X106.375 Y111.147 E17.58251
G1 X105.672 Y111.281 E17.63606
G1 X104.967 Y111.385 E17.68939
G1 X104.252 Y111.46 E17.74319
G1 X103.544 Y111.508 E17.7963
G1 X102.831 Y111.526 E17.84967
G1 X102.117 Y111.516 E17.90311
G1 X101.407 Y111.477 E17.95632
G1 X100.695 Y111.412 E18.00983
G1 X99.989 Y111.316 E18.06315
G1 X99.286 Y111.192 E18.11657
G1 X98.602 Y111.044 E18.16894
G1 X97.899 Y110.86 E18.22332
G1 X97.213 Y110.653 E18.27695
G1 X96.545 Y110.421 E18.32986
G1 X95.871 Y110.158 E18.38401
G1 X95.224 Y109.871 E18.43698
G1 X94.583 Y109.558 E18.49036
G1 X93.954 Y109.219 E18.54383
G1 X93.34 Y108.854 E18.59729
G1 X92.744 Y108.467 E18.65047
G1 X91.942 Y107.911 E18.7235
G1 X91.72 Y107.793 E18.74231
G1 X91.481 Y107.691 E18.76176
G1 X91.115 Y107.576 E18.79047
G1 X90.725 Y107.534 E18.81982
G1 X90.467 Y107.53 E18.83913
G1 X90.204 Y107.552 E18.85888
G1 X89.826 Y107.621 E18.88764
G1 X89.456 Y107.763 E18.9173
G1 X89.231 Y107.877 E18.93617
G1 X89.014 Y108.014 E18.95538
G1 X88.803 Y108.178 E18.97537
G1 X88.618 Y108.351 E18.99433
G1 X88.443 Y108.549 E19.0141
G1 X88.296 Y108.753 E19.03292
G1 X88.163 Y108.979 E19.05255
G1 X88.057 Y109.211 E19.07163
G1 X87.93 Y109.566 E19.09985
G1 X87.87 Y109.965 E19.13004
G1 X87.858 Y110.227 E19.14967
G1 X87.857 Y120.855 E19.94502
G1 F1500 E16.94502
G0 F6000 X88.427 Y120.285
G0 X88.772 Y109.801
G0 X89.063 Y109.161
G0 X89.59 Y108.669
G0 X90.229 Y108.423
G0 X90.919 Y108.428
G0 X91.596 Y108.715
G0 X94.166 Y110.339
G0 X91.531 Y112.063
G0 X91.209 Y114.903
G0 X93.043 Y117.009
G0 X95.136 Y117.042
G1 F1500 E19.94502
G0 F6000 X95.084 Y116.443
G1 F1200 X94.479 Y116.495 E19.99046
G1 X93.987 Y116.454 E20.02741
G1 X93.356 Y116.207 E20.07812
G1 X93.03 Y116.009 E20.10666
G1 X92.602 Y115.635 E20.1492
G1 X92.395 Y115.375 E20.17407
G1 X92.115 Y114.877 E20.21682
G1 X92.008 Y114.575 E20.2408
G1 X91.915 Y114.176 E20.27146
G1 X91.914 Y113.656 E20.31038
G1 X92.027 Y112.991 E20.36085
G1 X92.239 Y112.558 E20.39693
G1 X92.506 Y112.148 E20.43355
G1 X92.811 Y111.848 E20.46556
G1 X93.307 Y111.504 E20.51074
G1 X93.869 Y111.281 E20.55598
G1 X94.484 Y111.195 E20.60245
G1 X94.822 Y111.208 E20.62777
G1 X95.376 Y111.321 E20.67008
G1 X95.916 Y111.566 E20.71446
G1 X96.198 Y111.763 E20.7402
G1 X96.61 Y112.162 E20.78312
G1 X96.936 Y112.676 E20.82867
G1 X97.047 Y112.938 E20.84996
G1 X97.218 Y113.64 E20.90403
G1 X97.191 Y114.153 E20.94248
G1 X97.058 Y114.726 E20.9865
G1 X96.783 Y115.28 E21.03278
G1 X96.615 Y115.513 E21.05428
G1 X96.214 Y115.913 E21.09667
G1 X95.774 Y116.221 E21.13686
G1 X95.084 Y116.443 E21.1911
G0 F6000 X95.136 Y117.042
G0 X96.014 Y116.708
G0 X96.539 Y116.347
G0 X97.012 Y115.886
G0 X97.263 Y115.537
G0 X97.567 Y114.919
G0 X97.726 Y114.236
G0 X97.76 Y113.596
G0 X97.569 Y112.788
G0 X97.402 Y112.398
G0 X97.096 Y111.926
G0 X96.255 Y111.007
;TYPE:WALL-INNER
G1 F1039 X95.935 Y110.872 E21.22112
G1 F1066.7 X95.615 Y110.736 E21.2504
G1 X95.472 Y110.684 E21.26321
G1 F1500 E18.26321
G0 F6000 X97.548 Y111.996
G0 X97.877 Y114.991
G0 X95.999 Y117.052
G0 X93.043 Y117.009
G0 X91.17 Y114.772
G0 X91.745 Y111.73
G0 X94.166 Y110.339
G0 X91.182 Y108.5
G0 X90.496 Y108.392
G0 X89.806 Y108.551
G0 X89.236 Y108.953
G0 X88.855 Y109.535
G0 X88.719 Y110.249
G0 X88.729 Y119.983
G0 X110.473 Y119.975
G0 X110.473 Y119.14
G0 X110.626 Y118.868
G1 F1500 E21.26321
G0 F6000 X110.639 Y118.867
G1 F1200 X109.974 Y118.817 E21.31311
G1 X109.284 Y118.635 E21.36651
G1 X108.628 Y118.288 E21.42205
G1 X108.076 Y117.813 E21.47655
G1 X107.561 Y117.108 E21.54189
G1 X107.345 Y116.524 E21.58848
G1 X107.222 Y115.987 E21.62971
G1 X107.22 Y115.374 E21.67558
G1 X107.368 Y114.546 E21.73853
G1 X107.649 Y113.972 E21.78636
G1 X108.045 Y113.425 E21.83689
G1 X108.36 Y113.116 E21.86991
G1 X108.938 Y112.729 E21.92197
G1 X109.305 Y112.558 E21.95227
G1 X109.995 Y112.374 E22.00571
G1 X110.254 Y112.345 E22.02521
G1 X110.779 Y112.36 E22.06452
G1 X111.461 Y112.497 E22.11657
G1 X112.092 Y112.784 E22.16845
G1 X112.47 Y113.036 E22.20245
G1 X112.912 Y113.459 E22.24823
G1 X113.009 Y113.571 E22.25932
G1 X113.382 Y114.15 E22.31086
G1 X113.631 Y114.833 E22.36527
G1 X113.721 Y115.554 E22.41964
G1 X113.695 Y116.007 E22.4536
G1 X113.542 Y116.666 E22.50423
G1 X113.321 Y117.191 E22.54685
G1 X112.92 Y117.747 E22.59815
G1 X112.741 Y117.933 E22.61747
G1 X112.188 Y118.362 E22.66985
G1 X111.726 Y118.607 E22.70898
G1 X111.488 Y118.692 E22.7279
G1 X110.639 Y118.867 E22.79277
G0 F6000 X110.587 Y118.266
;TYPE:WALL-OUTER
G1 F1200 X110.047 Y118.216 E22.83335
G1 X109.5 Y118.071 E22.8757
G1 X108.973 Y117.792 E22.92032
G1 X108.517 Y117.4 E22.96532
G1 X108.095 Y116.823 E23.01882
G1 X107.918 Y116.336 E23.0576
G1 X107.821 Y115.895 E23.09139
G1 X107.824 Y115.406 E23.12798
G1 X107.936 Y114.761 E23.17697
G1 X108.154 Y114.305 E23.2148
G1 X108.484 Y113.842 E23.25735
G1 X108.762 Y113.569 E23.28651
G1 X109.229 Y113.254 E23.32866
G1 X109.533 Y113.118 E23.35358
G1 X110.189 Y112.943 E23.40439
G1 X110.73 Y112.963 E23.44491
G1 X111.293 Y113.078 E23.48791
G1 X111.8 Y113.308 E23.52957
G1 X112.094 Y113.504 E23.55601
G1 X112.527 Y113.927 E23.60131
G1 X112.832 Y114.401 E23.64349
G1 X113.048 Y114.99 E23.69044
G1 X113.117 Y115.601 E23.73646
G1 X113.094 Y115.943 E23.76211
G1 X112.977 Y116.449 E23.80098
G1 X112.795 Y116.895 E23.83702
G1 X112.407 Y117.433 E23.88666
G1 X111.836 Y117.87 E23.94047
G1 X111.411 Y118.095 E23.97646
G1 X110.587 Y118.266 E24.03944
G0 F6000 X110.537 Y118.861
G0 X110.673 Y119.153
G0 X110.673 Y119.955
G0 X110.747 Y119.557
;TYPE:SKIN
G1 F828.5 X110.659 Y119.562 E24.04899
G1 F821 X110.375 Y119.551 E24.08008
G1 F800 X110.091 Y119.539 E24.11199
G1 F780.9 X109.807 Y119.528 E24.14467
G0 F6000 X109.806 Y119.527
G1 F847.1 X109.521 Y119.364 E24.17948
G1 F1054.2 X109.235 Y119.201 E24.20752
G1 F1200 X108.953 Y119.094 E24.23009
G1 X108.463 Y118.836 E24.27154
G1 X108.184 Y118.647 E24.29675
G1 X107.785 Y118.303 E24.33618
G1 X107.583 Y118.086 E24.35836
G1 X107.16 Y117.505 E24.41215
G1 X107 Y117.208 E24.43739
G1 X106.805 Y116.678 E24.47966
G1 X106.664 Y116.038 E24.5287
G1 X106.663 Y115.309 E24.58325
G1 X106.823 Y114.382 E24.65365
G1 X107.155 Y113.704 E24.71015
G1 X107.607 Y113.075 E24.76811
G1 X108.017 Y112.673 E24.81108
G1 X108.34 Y112.452 E24.84037
G1 F1245.7 X108.612 Y112.291 E24.86316
G1 F1318.7 X108.87 Y112.18 E24.88228
G1 F1368.8 X109.129 Y112.068 E24.9008
G1 F1376.7 X109.384 Y111.994 E24.91812
G1 F1338.3 X109.639 Y111.919 E24.93595
G1 F1302 X109.894 Y111.844 E24.95428
G1 F1241.4 X110.234 Y111.786 E24.97924
G1 F1200 X110.866 Y111.806 E25.02656
G1 X111.631 Y111.958 E25.08492
G1 X112.358 Y112.291 E25.14476
G1 X112.804 Y112.579 E25.18449
G1 X113.431 Y113.19 E25.25001
G1 X113.893 Y113.908 E25.3139
G1 X114.168 Y114.668 E25.37439
G1 X114.284 Y115.533 E25.4397
G1 X114.248 Y116.1 E25.48222
G1 X114.09 Y116.794 E25.53548
G1 X113.867 Y117.336 E25.57934
G1 X113.732 Y117.578 E25.60008
G1 X113.377 Y118.071 E25.64554
G1 X113.082 Y118.378 E25.67741
G1 X112.507 Y118.824 E25.73186
G1 X111.993 Y119.099 E25.77549
G1 F1148.3 X111.745 Y119.19 E25.79615
G1 F1057.3 X111.496 Y119.281 E25.81866
G1 F978.3 X111.247 Y119.373 E25.84303
G1 F911.4 X110.998 Y119.464 E25.86915
G1 F853.1 X110.749 Y119.556 E25.8971
G1 F871.7 X111.045 Y119.602 E25.92796
G1 F978.3 X111.344 Y119.648 E25.95573
G1 F1116.3 X111.643 Y119.693 E25.98005
G1 F1200 X130.984 Y119.695 E27.42744
G1 X130.981 Y105.087 E28.52064
G1 X130.634 Y105.016 E28.54714
G1 X130.045 Y104.863 E28.59268
G1 X129.495 Y104.69 E28.63583
G1 X128.888 Y104.465 E28.68428
G1 X128.343 Y104.232 E28.72863
G1 X127.823 Y103.973 E28.77211
G1 X127.307 Y103.684 E28.81637
G1 X126.862 Y103.407 E28.85559
G1 X126.358 Y103.06 E28.90138
G1 X125.902 Y102.703 E28.94472
G1 X125.461 Y102.326 E28.98814
G1 X124.993 Y101.88 E29.03652
G1 X124.601 Y101.462 E29.07941
G1 X124.253 Y101.061 E29.11914
G1 X123.88 Y100.577 E29.16487
G1 X123.693 Y100.306 E29.18951
G1 X122.048 Y100.306 E29.31261
G1 X121.962 Y101.015 E29.36606
G1 X121.803 Y102.18 E29.45405
G1 X121.709 Y102.442 E29.47488
G1 X121.428 Y102.864 E29.51282
G1 X120.965 Y103.207 E29.55594
G1 X120.461 Y103.303 E29.59434
G1 X119.082 Y103.305 E29.69754
G1 X118.775 Y103.816 E29.74215
G1 X118.359 Y104.45 E29.79889
G1 X117.896 Y105.099 E29.85856
G1 X117.448 Y105.668 E29.91275
G1 X116.959 Y106.248 E29.96952
G1 X116.413 Y106.841 E30.02985
G1 X115.915 Y107.345 E30.08287
G1 X115.354 Y107.867 E30.14022
G1 X114.776 Y108.363 E30.19721
G1 X114.137 Y108.865 E30.25803
G1 X113.528 Y109.305 E30.31425
G1 X112.89 Y109.732 E30.3717
G1 X112.283 Y110.102 E30.4249
G1 X111.623 Y110.469 E30.48141
G1 X110.94 Y110.814 E30.53868
G1 X110.16 Y111.17 E30.60284
G1 F1218.3 X109.919 Y111.253 E30.62163
G1 F1254.4 X109.678 Y111.336 E30.63988
G1 F1290.3 X109.437 Y111.419 E30.65762
G1 F1330.9 X109.196 Y111.502 E30.67482
G1 F1374 X108.954 Y111.585 E30.69154
G1 X108.694 Y111.68 E30.70963
G1 F1333.3 X108.433 Y111.775 E30.72834
G1 F1254.4 X108.079 Y111.918 E30.75567
G1 F1200 X107.315 Y112.123 E30.81487
G1 X106.636 Y112.278 E30.86699
G1 X105.906 Y112.419 E30.92263
G1 X105.137 Y112.533 E30.9808
G1 X104.38 Y112.614 E31.03778
G1 X103.572 Y112.668 E31.09838
G1 X102.86 Y112.686 E31.15168
G1 X102.054 Y112.675 E31.212
G1 X101.343 Y112.636 E31.26529
G1 X100.591 Y112.568 E31.3218
G1 X99.821 Y112.465 E31.37993
G1 X99.086 Y112.336 E31.43578
G1 X98.358 Y112.179 E31.49151
G1 X97.94 Y112.071 E31.52382
G1 X98.154 Y112.574 E31.56472
G1 X98.341 Y113.336 E31.62344
G1 X98.376 Y113.625 E31.64523
G1 X98.34 Y114.321 E31.69738
G1 X98.151 Y115.136 E31.75999
G1 X97.802 Y115.844 E31.81906
G1 X97.496 Y116.275 E31.85862
G1 X96.962 Y116.806 E31.91497
G1 X96.433 Y117.173 E31.96316
G1 X96.088 Y117.339 E31.99181
G1 X95.342 Y117.581 E32.0505
G1 X94.485 Y117.66 E32.1149
G1 X93.935 Y117.615 E32.1562
G1 X93.514 Y117.518 E32.18853
G1 X92.845 Y117.254 E32.24235
G1 X92.389 Y116.983 E32.28205
G1 X91.802 Y116.487 E32.33956
G1 X91.456 Y116.066 E32.38034
G1 X91.056 Y115.36 E32.44107
G1 X90.877 Y114.838 E32.48236
G1 X90.755 Y114.306 E32.52321
G1 X90.754 Y113.553 E32.57956
G1 X90.884 Y112.802 E32.6366
