;FLAVOR:Marlin
;TIME:3073
;Filament used: 1.4851m
;Layer height: 0.2
;MINX:99.336
;MINY:99.336
;MINZ:0.3
;MAXX:120.665
;MAXY:120.663
;MAXZ:20.5
;Generated with Cura_SteamEngine main
M82 ;absolute extrusion mode
; Ender 3 Custom Start G-code
G92 E0 ; Reset Extruder
G28 ; Home all axes
M104 S205.0 ; Start heating up the nozzle most of the way
M190 S60.0 ; Start heating the bed, wait until target temperature reached
M109 S205.0 ; Finish heating the nozzle
G1 Z2.0 F3000 ; Move Z Axis up little to prevent scratching of Heat Bed
G1 X0.1 Y20 Z0.3 F5000.0 ; Move to start position
G1 X0.1 Y200.0 Z0.3 F1500.0 E15 ; Draw the first line
G1 X0.4 Y200.0 Z0.3 F5000.0 ; Move to side a little
G1 X0.4 Y20 Z0.3 F1500.0 E30 ; Draw the second line
G92 E0 ; Reset Extruder
G1 Z2.0 F3000 ; Move Z Axis up little to prevent scratching of Heat Bed
G1 X5 Y20 Z0.3 F5000.0 ; Move over to prevent blob squish
G92 E0
G92 E0
G1 F1500 E-3
;LAYER_COUNT:102
;LAYER:0
M107
G0 F6000 X110.253 Y100.903 Z0.3
;TYPE:SKIRT
G1 F1500 E0
G1 F1200 X110.753 Y100.926 E0.03746
G1 X111.8 Y101.078 E0.11663
G1 X112.152 Y101.156 E0.14361
G1 X112.812 Y101.339 E0.19487
G1 X113.49 Y101.593 E0.24905
G1 X114.107 Y101.879 E0.29994
G1 X114.593 Y102.141 E0.34126
G1 X115.215 Y102.536 E0.3964
G1 X115.64 Y102.864 E0.43658
G1 X110.253 Y100.903 E0.86559
G1 F1500 E-2.13441
G0 F6000 X106.429 Y100.982
G1 F1500 E0.86559
G1 F1200 X106.861 Y100.82 E0.90012
G1 X107.666 Y100.581 E0.96296
G1 X108.232 Y100.462 E1.00624
G1 X108.98 Y100.354 E1.0628
G1 X109.765 Y100.303 E1.12167
G1 X110.174 Y100.3 E1.15228
G1 X110.799 Y100.328 E1.1991
G1 X111.833 Y100.47 E1.27721
G1 X112.291 Y100.572 E1.31232
G1 X113.007 Y100.771 E1.36793
G1 X113.719 Y101.038 E1.42484
G1 X114.365 Y101.337 E1.47811
G1 X114.898 Y101.625 E1.52345
G1 X115.626 Y102.087 E1.58797
G1 X116.176 Y102.524 E1.64054
G1 X116.381 Y102.697 E1.66062
G1 X116.736 Y103.017 E1.69638
G1 X117.139 Y103.43 E1.73957
G1 X117.456 Y103.796 E1.7758
G1 X117.833 Y104.272 E1.82124
G1 X118.152 Y104.738 E1.8635
G1 X118.531 Y105.385 E1.91962
G1 X118.18 Y105.283 E1.94697
G1 X117.831 Y105.115 E1.97596
G1 X117.53 Y104.929 E2.00244
G1 X117.235 Y104.708 E2.03002
G1 X116.903 Y104.395 E2.06417
G1 X116.728 Y104.214 E2.08301
G1 X116.356 Y103.801 E2.1246
G1 X116.236 Y103.72 E2.13544
G1 X109.24 Y101.173 E2.6926
G1 X109.093 Y101.158 E2.70366
G1 X108.56 Y101.237 E2.74398
G1 X108.189 Y101.273 E2.77188
G1 X107.748 Y101.283 E2.80489
G1 X107.47 Y101.269 E2.82572
G1 X107.129 Y101.219 E2.85151
G1 X106.743 Y101.121 E2.88131
G1 X106.429 Y100.982 E2.90701
G1 F1500 E-0.09299
G0 F6000 X105.045 Y100.542
G0 X103.528 Y101.525
G0 X102.368 Y102.552
G0 X101.383 Y103.717
G0 X100.569 Y105.02
G0 X100.079 Y106.016
G0 X99.841 Y106.674
G0 X99.437 Y108.533
G0 X99.336 Y110.105
G0 X99.467 Y111.668
G0 X99.822 Y113.186
G0 X100.357 Y114.568
G0 X102.137 Y115.684
G1 F1500 E2.90701
G1 F1200 X112.367 Y119.407 E3.7217
G1 X111.967 Y119.497 E3.75238
G1 X111.076 Y119.65 E3.82003
G1 X110.171 Y119.699 E3.88786
G1 X109.715 Y119.698 E3.92198
G1 X109.107 Y119.659 E3.96758
G1 X108.356 Y119.566 E4.02421
G1 X107.775 Y119.439 E4.06871
G1 X107.274 Y119.311 E4.10741
G1 X106.807 Y119.159 E4.14416
G1 X106.308 Y118.968 E4.18415
G1 X105.723 Y118.713 E4.23191
G1 X105.022 Y118.322 E4.29197
G1 X104.527 Y118.014 E4.3356
G1 X104.179 Y117.763 E4.36771
G1 X103.887 Y117.532 E4.39558
G1 X103.302 Y117.022 E4.45366
G1 X102.866 Y116.573 E4.50049
G1 X102.688 Y116.373 E4.52053
G1 X102.317 Y115.925 E4.56406
G1 X102.137 Y115.684 E4.58657
G0 F6000 X104.336 Y117.123
G1 F1200 X109.763 Y119.098 E5.01876
G1 X109.153 Y119.061 E5.06449
G1 X108.458 Y118.975 E5.1169
G1 X107.913 Y118.855 E5.15866
G1 X107.437 Y118.733 E5.19543
G1 X107.164 Y118.648 E5.21683
G1 X106.51 Y118.402 E5.26912
G1 X105.988 Y118.173 E5.31178
G1 X105.316 Y117.799 E5.36933
G1 X104.868 Y117.52 E5.40883
G1 X104.538 Y117.282 E5.43928
G1 X104.336 Y117.123 E5.45851
G1 F1500 E2.45851
;MESH:nema_disli.stl
G0 F6000 X105.055 Y115.149
G0 X114.341 Y117.996
G1 F1500 E5.45851
G0 F6000 X114.34 Y117.996
;TYPE:WALL-INNER
G1 F1200 X114.591 Y117.854 E5.4801
G1 X115.157 Y117.496 E5.53021
G1 X115.432 Y117.298 E5.55557
G1 X115.729 Y117.067 E5.58373
G1 X115.959 Y116.875 E5.60615
G1 X116.23 Y116.63 E5.63349
G1 X116.46 Y116.407 E5.65746
G1 X116.701 Y116.155 E5.68356
G1 X116.908 Y115.922 E5.70688
G1 X117.131 Y115.651 E5.73315
G1 X117.331 Y115.388 E5.75787
G1 X117.529 Y115.11 E5.78341
G1 X117.711 Y114.83 E5.80841
G1 X111.998 Y112.75 E6.26339
G1 X111.568 Y113.034 E6.30196
G1 X110.971 Y113.265 E6.34986
G1 X110.461 Y113.373 E6.38888
G1 X109.842 Y113.41 E6.43528
G1 X109.205 Y113.309 E6.48355
G1 X108.594 Y113.112 E6.53159
G1 X107.942 Y112.726 E6.58829
G1 X107.478 Y112.285 E6.6362
G1 X107.16 Y111.877 E6.67491
G1 X106.939 Y111.481 E6.70885
G1 X106.764 Y111.045 E6.744
G1 X106.704 Y110.823 E6.76121
G1 X100.989 Y108.742 E7.21637
G1 X100.947 Y109.086 E7.2423
G1 X100.919 Y109.427 E7.26791
G1 X100.905 Y109.765 E7.29322
G1 X100.901 Y110.108 E7.31889
G1 X100.911 Y110.425 E7.34263
G1 X100.935 Y110.783 E7.36948
G1 X100.963 Y111.062 E7.39046
G1 X101.013 Y111.422 E7.41766
G1 X101.076 Y111.769 E7.44406
G1 X101.149 Y112.104 E7.46971
G1 X101.233 Y112.429 E7.49483
G1 X101.321 Y112.729 E7.51823
G1 X101.433 Y113.069 E7.54502
G1 X101.535 Y113.335 E7.56634
G1 X114.34 Y117.996 E8.58611
G0 F6000 X114.393 Y118.655
;TYPE:WALL-OUTER
G1 F1200 X114.886 Y118.378 E8.62843
G1 X115.218 Y118.174 E8.65759
G1 X115.497 Y117.99 E8.6826
G1 X115.821 Y117.756 E8.71251
G1 X116.077 Y117.558 E8.73673
G1 X116.352 Y117.329 E8.76351
G1 X116.62 Y117.088 E8.79049
G1 X116.891 Y116.825 E8.81875
G1 X117.125 Y116.581 E8.84405
G1 X117.364 Y116.312 E8.87097
G1 X117.593 Y116.035 E8.89787
G1 X117.81 Y115.752 E8.92456
G1 X118.031 Y115.439 E8.95323
G1 X118.221 Y115.146 E8.97936
G1 X118.395 Y114.855 E9.00474
G1 X118.572 Y114.537 E9.03197
G1 X118.587 Y114.51 E9.03429
G1 X111.879 Y112.067 E9.56854
G1 X111.704 Y112.224 E9.58613
G1 X111.294 Y112.496 E9.62295
G1 X110.782 Y112.691 E9.66395
G1 X110.406 Y112.772 E9.69273
G1 X109.869 Y112.807 E9.73301
G1 X109.364 Y112.727 E9.77127
G1 X108.843 Y112.562 E9.81217
G1 X108.307 Y112.246 E9.85873
G1 X107.911 Y111.864 E9.89991
G1 X107.677 Y111.564 E9.92838
G1 X107.471 Y111.203 E9.95948
G1 X107.309 Y110.782 E9.99324
G1 X107.223 Y110.373 E10.02452
G1 X100.525 Y107.935 E10.55794
G1 X100.449 Y108.317 E10.58708
G1 X100.392 Y108.677 E10.61436
G1 X100.349 Y109.035 E10.64134
G1 X100.319 Y109.401 E10.66883
G1 X100.305 Y109.759 E10.69564
G1 X100.301 Y110.126 E10.7231
G1 X100.313 Y110.484 E10.74991
G1 X100.366 Y111.124 E10.79797
G1 X100.42 Y111.516 E10.82758
G1 X100.489 Y111.895 E10.85641
G1 X100.567 Y112.252 E10.88376
G1 X100.645 Y112.556 E10.90724
G1 X100.741 Y112.886 E10.93296
G1 X100.862 Y113.256 E10.96209
G1 X101.081 Y113.809 E11.00661
G1 X114.393 Y118.655 E12.06677
G0 F6000 X114.341 Y118.007
G0 X114.161 Y117.717
G0 X114.285 Y117.38
;TYPE:SKIN
G1 F1200 X114.574 Y117.209 E12.0919
G1 X114.808 Y117.054 E12.1129
G1 X115.353 Y116.65 E12.16367
G1 X115.576 Y116.465 E12.18536
G1 X115.84 Y116.228 E12.2119
G1 X116.045 Y116.028 E12.23334
G1 X116.292 Y115.771 E12.26001
G1 X116.687 Y115.311 E12.30539
G1 X116.842 Y115.107 E12.32456
G1 X112.074 Y113.375 E12.70419
G1 X111.82 Y113.535 E12.72665
G1 X111.152 Y113.799 E12.7804
G1 X110.548 Y113.927 E12.82661
G1 X109.973 Y113.963 E12.86972
G1 X109.651 Y113.948 E12.89385
G1 X109.085 Y113.858 E12.93674
G1 X108.375 Y113.63 E12.99254
G1 X107.721 Y113.245 E13.04933
G1 X107.483 Y113.061 E13.07185
G1 X107.039 Y112.637 E13.11779
G1 X106.676 Y112.163 E13.16247
G1 X106.419 Y111.7 E13.2021
G1 X106.243 Y111.251 E13.23819
G1 X101.478 Y109.515 E13.61771
G1 X101.462 Y110.069 E13.65918
G1 X101.49 Y110.696 E13.70615
G1 X101.522 Y111.016 E13.73022
G1 X101.565 Y111.326 E13.75364
G1 X101.619 Y111.626 E13.77645
G1 X101.688 Y111.939 E13.80044
G1 X101.852 Y112.546 E13.84749
G1 X101.965 Y112.897 E13.87509
G1 X108.741 Y115.366 E14.41478
G1 X108.798 Y115.378 E14.41914
G1 X114.285 Y117.38 E14.85624
G0 F6000 X114.161 Y117.717
G0 X114.455 Y117.632
G0 X115.55 Y116.846
G0 X116.727 Y115.823
G0 X116.231 Y115.382
G1 F1200 X115.952 Y115.104 E14.88572
G0 F6000 X115.824 Y115.824
G1 F1200 X114.619 Y114.619 E15.01325
G0 F6000 X114.845 Y113.999
G0 X113.512 Y113.514
G0 X113.285 Y114.134
G1 F1200 X115.384 Y116.232 E15.23534
G0 F6000 X114.907 Y116.604
G1 F1200 X112.048 Y113.745 E15.53791
G0 F6000 X111.455 Y114.001
G1 F1200 X114.407 Y116.952 E15.85028
G0 F6000 X114.778 Y117.508
G0 X114.363 Y117.686
G0 X113.084 Y117.324
G0 X113.31 Y116.704
G1 F1200 X110.789 Y114.183 E16.11708
G0 F6000 X110.018 Y114.26
G1 F1200 X111.973 Y116.215 E16.32399
G0 F6000 X111.746 Y116.838
G0 X110.409 Y116.352
G0 X110.636 Y115.727
G1 F1200 X109.067 Y114.158 E16.49004
G0 F6000 X109.224 Y113.515
G0 X112.034 Y113.045
G0 X117.291 Y114.969
G0 X116.48 Y116.009
G0 X115.254 Y117.104
G0 X114.316 Y117.706
G0 X109.071 Y115.865
G0 X109.299 Y115.239
G1 F1200 X107.549 Y113.489 E16.67525
G0 F6000 X107.933 Y112.954
G0 X106.482 Y111.024
G0 X101.222 Y109.121
G0 X101.173 Y110.427
G0 X101.402 Y112.04
G0 X101.738 Y113.128
G0 X106.42 Y114.9
G0 X106.645 Y114.282
G1 F1200 X102.611 Y110.247 E17.10223
G0 F6000 X101.771 Y110.256
G1 F1200 X105.31 Y113.796 E17.47683
G0 F6000 X105.085 Y114.413
G0 X103.749 Y113.927
G0 X103.975 Y113.308
G1 F1200 X101.847 Y111.181 E17.70199
G0 F6000 X101.193 Y111.269
G0 X101.449 Y112.457
G0 X102.088 Y112.27
G1 F1200 X102.64 Y112.822 E17.76041
G0 F6000 X102.414 Y113.442
G0 X101.738 Y113.128
G0 X101.32 Y111.662
G0 X101.161 Y110.073
G0 X101.222 Y109.121
G0 X104.169 Y110.115
G0 X103.944 Y110.732
G1 F1200 X107.98 Y114.769 E18.1876
G0 F6000 X107.753 Y115.386
G0 X101.738 Y113.128
G0 X101.32 Y111.662
G0 X101.161 Y110.073
G0 X101.222 Y109.121
G0 X106.482 Y111.024
G0 X107.051 Y112.065
G0 X106.531 Y112.47
G1 F1200 X105.279 Y111.218 E18.32011
G1 F1500 E15.32011
G0 F6000 X105.506 Y110.601
G0 X106.059 Y110.84
G0 X107.565 Y111.614
G0 X108.469 Y111.01
G0 X111.82 Y109.767
G0 X112.878 Y109.54
G0 X119.01 Y111.256
;TYPE:WALL-INNER
G1 F1500 E18.32011
G1 F1200 X119.049 Y110.947 E18.34341
G1 X119.077 Y110.624 E18.36768
G1 X119.095 Y110.291 E18.39263
G1 X119.099 Y109.995 E18.41479
G1 X119.091 Y109.632 E18.44196
G1 X119.072 Y109.298 E18.46699
G1 X119.04 Y108.971 E18.49158
G1 X118.997 Y108.638 E18.51671
G1 X118.944 Y108.326 E18.54039
G1 X118.88 Y108.011 E18.56445
G1 X118.739 Y107.466 E18.60657
G1 X118.061 Y107.332 E18.65829
G1 X117.482 Y107.161 E18.70347
G1 X116.91 Y106.892 E18.75078
G1 X116.373 Y106.561 E18.79798
G1 X116.079 Y106.341 E18.82546
G1 X115.801 Y106.107 E18.85266
G1 X115.508 Y105.83 E18.88283
G1 X115.153 Y105.453 E18.92158
G1 X108.981 Y103.207 E19.4131
G1 X108.337 Y103.269 E19.46152
G1 X107.679 Y103.284 E19.51077
G1 X107.236 Y103.256 E19.54399
G1 X106.756 Y103.187 E19.58028
G1 X106.078 Y103.011 E19.6327
G1 X105.365 Y102.697 E19.691
G1 X104.953 Y102.431 E19.7277
G1 X104.48 Y102.768 E19.77116
G1 X103.967 Y103.19 E19.82087
G1 X103.723 Y103.414 E19.84566
G1 X103.472 Y103.663 E19.87212
G1 X103.264 Y103.883 E19.89478
G1 X103.049 Y104.129 E19.91923
G1 X102.834 Y104.394 E19.94476
G1 X102.457 Y104.912 E19.99271
G1 X102.289 Y105.17 E20.01575
G1 X108.002 Y107.251 E20.47076
G1 X108.426 Y106.97 E20.50883
G1 X109.025 Y106.736 E20.55695
G1 X109.539 Y106.627 E20.59628
G1 X110.163 Y106.59 E20.64305
G1 X110.794 Y106.69 E20.69086
G1 X111.401 Y106.885 E20.73858
G1 X112.055 Y107.272 E20.79545
G1 X112.52 Y107.714 E20.84346
G1 X112.818 Y108.095 E20.87965
G1 X113.071 Y108.538 E20.91783
G1 X113.239 Y108.965 E20.95217
G1 X113.295 Y109.177 E20.96858
G1 X119.01 Y111.256 E21.42368
G0 F6000 X119.475 Y112.064
;TYPE:WALL-OUTER
G1 F1200 X119.548 Y111.701 E21.45139
G1 X119.604 Y111.352 E21.47784
G1 X119.647 Y111.001 E21.50431
G1 X119.677 Y110.656 E21.53022
G1 X119.695 Y110.324 E21.55511
G1 X119.699 Y110.003 E21.57913
G1 X119.691 Y109.599 E21.60937
G1 X119.67 Y109.242 E21.63613
G1 X119.596 Y108.582 E21.68583
G1 X119.543 Y108.266 E21.70981
G1 X119.464 Y107.871 E21.73996
G1 X119.385 Y107.549 E21.76477
G1 X119.296 Y107.229 E21.78962
G1 X119.184 Y106.889 E21.81641
G1 X118.591 Y106.824 E21.86106
G1 X118.229 Y106.756 E21.88862
G1 X117.706 Y106.604 E21.92938
G1 X117.17 Y106.351 E21.97373
G1 X116.733 Y106.081 E22.01217
G1 X116.425 Y105.85 E22.04099
G1 X116.213 Y105.671 E22.06175
G1 X115.91 Y105.384 E22.09298
G1 X115.697 Y105.162 E22.11601
G1 X115.499 Y104.941 E22.13821
G1 X109.024 Y102.584 E22.65388
G1 X108.716 Y102.629 E22.67717
G1 X108.279 Y102.671 E22.71002
G1 X107.711 Y102.684 E22.75254
G1 X107.349 Y102.665 E22.77967
G1 X106.861 Y102.596 E22.81655
G1 X106.312 Y102.456 E22.85895
G1 X105.649 Y102.168 E22.91305
G1 X104.958 Y101.719 E22.97471
G1 X104.664 Y101.901 E23.00059
G1 X104.384 Y102.093 E23.026
G1 X104.096 Y102.307 E23.05285
G1 X103.835 Y102.514 E23.07778
G1 X103.569 Y102.74 E23.1039
G1 X103.282 Y103.006 E23.13318
G1 X103.036 Y103.25 E23.15911
G1 X102.82 Y103.479 E23.18267
G1 X102.59 Y103.743 E23.20887
G1 X102.357 Y104.03 E23.23654
G1 X102.152 Y104.302 E23.26203
G1 X101.961 Y104.572 E23.28678
G1 X101.767 Y104.874 E23.31364
G1 X101.591 Y105.169 E23.33935
G1 X101.413 Y105.49 E23.36681
G1 X108.121 Y107.933 E23.90106
G1 X108.296 Y107.777 E23.91861
G1 X108.705 Y107.505 E23.95537
G1 X109.174 Y107.322 E23.99304
G1 X109.594 Y107.228 E24.02525
G1 X110.131 Y107.193 E24.06552
G1 X110.636 Y107.273 E24.10378
G1 X111.133 Y107.429 E24.14277
G1 X111.691 Y107.753 E24.19105
G1 X112.056 Y108.101 E24.22879
G1 X112.329 Y108.443 E24.26154
G1 X112.533 Y108.804 E24.29257
G1 X112.678 Y109.179 E24.32266
G1 X112.778 Y109.628 E24.35708
G1 X119.475 Y112.064 E24.89038
G0 F6000 X119.042 Y111.307
G0 X118.882 Y110.506
G0 X118.534 Y110.487
;TYPE:SKIN
G1 F1200 X118.533 Y109.674 E24.95122
G1 X118.515 Y109.373 E24.97379
G1 X118.452 Y108.78 E25.01842
G1 X118.3 Y107.949 E25.08164
G1 X118 Y107.895 E25.10445
G1 X117.249 Y107.676 E25.16299
G1 X116.584 Y107.356 E25.21822
G1 X116.055 Y107.024 E25.26496
G1 X115.676 Y106.739 E25.30044
G1 X115.413 Y106.512 E25.32644
G1 X115.009 Y106.124 E25.36836
G1 X114.832 Y105.933 E25.38785
G1 X112.095 Y104.937 E25.60581
G1 X108.898 Y103.772 E25.86045
G1 X108.392 Y103.827 E25.89854
G1 X107.649 Y103.843 E25.95416
G1 X107.265 Y103.822 E25.98294
G1 X106.671 Y103.741 E26.0278
G1 X105.935 Y103.557 E26.08457
G1 X105.123 Y103.202 E26.15089
G1 X104.96 Y103.102 E26.1652
G1 X104.335 Y103.614 E26.22567
G1 X104.095 Y103.835 E26.25008
G1 X103.866 Y104.061 E26.27416
G1 X103.466 Y104.504 E26.31883
G1 X103.153 Y104.888 E26.3559
G1 X107.927 Y106.627 E26.73613
G1 X108.169 Y106.467 E26.75784
G1 X108.839 Y106.211 E26.81151
G1 X109.483 Y106.068 E26.86088
G1 X110.027 Y106.037 E26.90166
G1 X110.347 Y106.052 E26.92563
G1 X110.924 Y106.146 E26.96938
G1 X111.622 Y106.367 E27.02417
G1 X112.282 Y106.756 E27.0815
G1 X112.517 Y106.938 E27.10375
G1 X112.927 Y107.329 E27.14614
G1 X113.294 Y107.793 E27.19042
G1 X113.585 Y108.306 E27.23455
G1 X113.757 Y108.75 E27.27019
G1 X118.534 Y110.487 E27.65057
G0 F6000 X118.882 Y110.506
G0 X118.809 Y108.736
G0 X118.151 Y108.818
G1 F1200 X117.352 Y108.019 E27.73513
G0 F6000 X117.538 Y107.389
G0 X118.524 Y107.69
G0 X118.786 Y109.042
G0 X118.816 Y110.615
G0 X118.777 Y110.878
G0 X117.16 Y110.372
G0 X117.387 Y109.75
G1 F1200 X113.349 Y105.713 E28.16244
G0 F6000 X113.575 Y105.092
G0 X115.056 Y105.736
G0 X118.524 Y107.69
G0 X118.786 Y109.042
G0 X118.816 Y110.615
G0 X118.777 Y110.878
G0 X113.517 Y108.977
G0 X112.067 Y107.044
G0 X112.446 Y106.506
G1 F1200 X110.68 Y104.74 E28.34934
G0 F6000 X110.906 Y104.121
G0 X108.86 Y103.479
G0 X104.906 Y102.781
G0 X103.662 Y103.842
G0 X102.856 Y104.799
G0 X102.711 Y105.028
G0 X107.967 Y106.956
G0 X110.773 Y106.484
G0 X110.93 Y105.839
G1 F1200 X109.345 Y104.254 E28.51708
G0 F6000 X108.371 Y104.129
G1 F1200 X109.981 Y105.738 E28.68742
G0 F6000 X109.211 Y105.817
G1 F1200 X107.532 Y104.138 E28.86511
G0 F6000 X106.571 Y104.026
G1 F1200 X108.547 Y106.002 E29.07424
G0 F6000 X107.951 Y106.254
G1 F1200 X105.305 Y103.608 E29.35428
G0 F6000 X104.618 Y103.77
G1 F1200 X106.714 Y105.865 E29.57605
G0 F6000 X106.488 Y106.487
G0 X105.158 Y106.002
G0 X105.38 Y105.38
G1 F1200 X104.177 Y104.177 E29.70337
